src/components/Icon/utils/svgsOptimized/arrows-in.svg

<svg width="24" height="24" viewBox="0 0 24 24"  xmlns="http://www.w3.org/2000/svg">
<path d="M13.2727 10.091V6.90935C13.2727 6.74058 13.3397 6.57873 13.459 6.45939C13.5784 6.34006 13.7402 6.27302 13.909 6.27302C14.0778 6.27302 14.2396 6.34006 14.3589 6.45939C14.4783 6.57873 14.5453 6.74058 14.5453 6.90935V8.55506L17.9131 5.18648C18.0325 5.06708 18.1945 5 18.3633 5C18.5322 5 18.6941 5.06708 18.8135 5.18648C18.9329 5.30588 19 5.46783 19 5.63669C19 5.80554 18.9329 5.96749 18.8135 6.08689L15.4449 9.45467H17.0907C17.2594 9.45467 17.4213 9.52172 17.5406 9.64105C17.6599 9.76039 17.727 9.92224 17.727 10.091C17.727 10.2598 17.6599 10.4216 17.5406 10.541C17.4213 10.6603 17.2594 10.7273 17.0907 10.7273H13.909C13.7402 10.7273 13.5784 10.6603 13.459 10.541C13.3397 10.4216 13.2727 10.2598 13.2727 10.091ZM10.091 13.2727H6.90935C6.74058 13.2727 6.57873 13.3397 6.45939 13.459C6.34006 13.5784 6.27302 13.7402 6.27302 13.909C6.27302 14.0778 6.34006 14.2396 6.45939 14.3589C6.57873 14.4783 6.74058 14.5453 6.90935 14.5453H8.55506L5.18648 17.9131C5.06708 18.0325 5 18.1945 5 18.3633C5 18.5322 5.06708 18.6941 5.18648 18.8135C5.30588 18.9329 5.46783 19 5.63669 19C5.80554 19 5.96749 18.9329 6.08689 18.8135L9.45467 15.4449V17.0907C9.45467 17.2594 9.52172 17.4213 9.64105 17.5406C9.76039 17.6599 9.92224 17.727 10.091 17.727C10.2598 17.727 10.4216 17.6599 10.541 17.5406C10.6603 17.4213 10.7273 17.2594 10.7273 17.0907V13.909C10.7273 13.7402 10.6603 13.5784 10.541 13.459C10.4216 13.3397 10.2598 13.2727 10.091 13.2727ZM15.4449 14.5453H17.0907C17.2594 14.5453 17.4213 14.4783 17.5406 14.3589C17.6599 14.2396 17.727 14.0778 17.727 13.909C17.727 13.7402 17.6599 13.5784 17.5406 13.459C17.4213 13.3397 17.2594 13.2727 17.0907 13.2727H13.909C13.7402 13.2727 13.5784 13.3397 13.459 13.459C13.3397 13.5784 13.2727 13.7402 13.2727 13.909V17.0907C13.2727 17.2594 13.3397 17.4213 13.459 17.5406C13.5784 17.6599 13.7402 17.727 13.909 17.727C14.0778 17.727 14.2396 17.6599 14.3589 17.5406C14.4783 17.4213 14.5453 17.2594 14.5453 17.0907V15.4449L17.9131 18.8135C17.9722 18.8726 18.0424 18.9195 18.1197 18.9515C18.1969 18.9835 18.2797 19 18.3633 19C18.4469 19 18.5297 18.9835 18.607 18.9515C18.6842 18.9195 18.7544 18.8726 18.8135 18.8135C18.8726 18.7544 18.9195 18.6842 18.9515 18.607C18.9835 18.5297 19 18.4469 19 18.3633C19 18.2797 18.9835 18.1969 18.9515 18.1197C18.9195 18.0424 18.8726 17.9722 18.8135 17.9131L15.4449 14.5453ZM10.091 6.27302C9.92224 6.27302 9.76039 6.34006 9.64105 6.45939C9.52172 6.57873 9.45467 6.74058 9.45467 6.90935V8.55506L6.08689 5.18648C5.96749 5.06708 5.80554 5 5.63669 5C5.46783 5 5.30588 5.06708 5.18648 5.18648C5.06708 5.30588 5 5.46783 5 5.63669C5 5.80554 5.06708 5.96749 5.18648 6.08689L8.55506 9.45467H6.90935C6.74058 9.45467 6.57873 9.52172 6.45939 9.64105C6.34006 9.76039 6.27302 9.92224 6.27302 10.091C6.27302 10.2598 6.34006 10.4216 6.45939 10.541C6.57873 10.6603 6.74058 10.7273 6.90935 10.7273H10.091C10.2598 10.7273 10.4216 10.6603 10.541 10.541C10.6603 10.4216 10.7273 10.2598 10.7273 10.091V6.90935C10.7273 6.74058 10.6603 6.57873 10.541 6.45939C10.4216 6.34006 10.2598 6.27302 10.091 6.27302Z" />
</svg>

<?xml version="1.0" encoding="utf-8"?><svg width="24" height="24" xmlns="http://www.w3.org/2000/svg" viewBox="0 0 24 24"><path d="M13.273 10.091V6.909a.636.636 0 1 1 1.272 0v1.646l3.368-3.369a.637.637 0 0 1 .9.9l-3.368 3.369h1.646a.636.636 0 0 1 0 1.272h-3.182a.637.637 0 0 1-.636-.636Zm-3.182 3.182H6.909a.636.636 0 1 0 0 1.272h1.646l-3.369 3.368a.637.637 0 0 0 .9.9l3.369-3.368v1.646a.636.636 0 0 0 1.272 0v-3.182a.637.637 0 0 0-.636-.636Zm5.354 1.272h1.646a.636.636 0 1 0 0-1.272h-3.182a.637.637 0 0 0-.636.636v3.182a.636.636 0 1 0 1.272 0v-1.646l3.368 3.369a.636.636 0 0 0 .9-.9l-3.368-3.369ZM10.09 6.273a.636.636 0 0 0-.636.636v1.646L6.087 5.186a.637.637 0 0 0-.9.9l3.368 3.369H6.91a.636.636 0 0 0 0 1.272h3.182a.637.637 0 0 0 .636-.636V6.909a.636.636 0 0 0-.636-.636Z"/></svg>
